X:27
T:Old singing man -huggins
C:Taken down from Will. Huggins, by F.W.B.  Sept. 1889
%%VWML:SBG-1-1-150-0
F:http://www.vwml.org/record/SBG/1/1/150
Z:Original Sibleius Transcription by Martin and Shan Graebe
L:1/8
M:6/8
I:linebreak $
K:G
BA | G E E E D C | D G2 z z D | G F E D E E | A3 z B A | G E E E D C | D G2 z z D |$ G F E D F G | 
A3 z G G | B B B B A G | B d2 z z G | G G G G A B | A3 z G G |$ B B B B A G | B d2 z2 A | 
A A A A B A | G3 !fermata!G BA | G F E D E F | G3 z3 |] 

